images/unibpm-logo-footer.svg

<svg width="1275" height="201" viewBox="0 0 1275 201" fill="none" xmlns="http://www.w3.org/2000/svg">
<path d="M63.2225 105.737C63.2225 112.857 64.4097 118.972 66.7841 124.107C69.1584 129.219 72.7897 133.187 77.6781 135.965C82.5897 138.742 88.8747 140.143 96.5331 140.143C96.859 140.143 120.463 140.143 120.789 140.143C128.191 140.026 134.22 138.696 138.922 136.105C143.834 133.42 147.418 129.476 149.7 124.247C151.981 119.042 153.121 112.88 153.121 105.761V4.10812C153.121 1.84398 154.96 0 157.218 0H212.247C214.505 0 216.344 1.84398 216.344 4.10812V109.379C216.344 127.608 212.34 143.504 204.333 157.042C196.325 170.58 185.105 181.131 170.65 188.693C156.473 196.093 139.923 199.874 120.952 200.014C120.579 200.014 96.9055 200.014 96.5331 200.014C77.2591 200.014 60.4059 196.233 45.9271 188.693C31.4716 181.131 20.2051 170.604 12.1045 157.042C4.05034 143.481 0 127.608 0 109.379V4.10812C0 1.84398 1.83895 0 4.0969 0H59.1256C61.3836 0 63.2225 1.84398 63.2225 4.10812V105.737Z" fill="url(#paint0_linear_2044_62)"/>
<path d="M239.617 191.214V4.10812C239.617 1.84398 241.456 0 243.714 0H318.901C320.321 0 321.648 0.746931 322.393 1.96069L385.15 105.434C387.292 108.982 392.739 107.441 392.739 103.31V4.10812C392.739 1.84398 394.578 0 396.836 0H449.909C452.167 0 454.006 1.84398 454.006 4.10812V191.214C454.006 193.478 452.167 195.322 449.909 195.322H377.166C375.746 195.322 374.419 194.575 373.674 193.338L308.473 85.7103C306.331 82.1624 300.884 83.6796 300.884 87.8344V191.191C300.884 193.455 299.045 195.299 296.787 195.299H243.714C241.456 195.299 239.617 193.455 239.617 191.191V191.214Z" fill="url(#paint1_linear_2044_62)"/>
<path d="M481.078 0H536.107C538.365 0 540.204 1.84398 540.204 4.10812V191.214C540.204 193.478 538.365 195.322 536.107 195.322H481.078C478.82 195.322 476.981 193.478 476.981 191.214V4.10812C476.981 1.84398 478.82 0 481.078 0Z" fill="url(#paint2_linear_2044_62)"/>
<path d="M560.933 191.214V4.10812C560.933 1.84398 562.771 0 565.029 0H700.111C717.103 0 730.418 4.20148 740.055 12.6278C749.692 21.0541 754.511 32.7249 754.511 47.6635C754.511 56.1832 752.718 64.166 749.11 71.612C745.526 79.0813 739.706 85.3368 731.722 90.3553C730.744 91.0555 729.836 91.6624 729.022 92.1759C732.443 93.0395 735.726 94.1833 738.822 95.5604C748.133 99.7386 755.116 105.504 759.772 112.88C764.427 120.256 766.755 129.079 766.755 139.303C766.755 149.526 764.497 159.446 760.028 167.943C755.535 176.462 748.715 183.138 739.567 187.993C730.418 192.848 718.989 195.276 705.255 195.276H565.029C562.771 195.276 560.933 193.432 560.933 191.168V191.214ZM622.689 69.0677C622.689 71.3319 624.528 73.1759 626.786 73.1759H675.366C679.603 73.1759 683.164 71.7987 686.028 68.9977C688.891 66.2201 690.311 62.6721 690.311 58.3306C690.311 54.3392 689.007 51.048 686.4 48.4338C683.793 45.8195 680.115 44.5357 675.366 44.5357H626.786C624.528 44.5357 622.689 46.3797 622.689 48.6439V69.0677ZM622.689 146.678C622.689 148.943 624.528 150.787 626.786 150.787H685.166C690.567 150.787 694.803 149.269 697.899 146.235C700.995 143.201 702.555 139.069 702.555 133.864C702.555 129.172 701.042 125.181 698.016 121.89C694.989 118.599 690.543 116.941 684.654 116.941H626.762C624.504 116.941 622.665 118.785 622.665 121.049V146.702L622.689 146.678Z" fill="url(#paint3_linear_2044_62)"/>
<path d="M904.221 0C920.888 0 935.134 2.9177 946.982 8.72975C958.831 14.5418 967.839 22.7814 974.054 33.4718C980.269 44.1389 983.366 56.6967 983.366 71.0985C983.366 85.5002 980.269 98.058 974.054 108.725C967.839 119.392 958.831 127.655 946.982 133.467C935.134 139.279 920.888 142.197 904.221 142.197H841.185C838.927 142.197 837.088 144.041 837.088 146.305V191.214C837.088 193.478 835.249 195.322 832.991 195.322H777.962C775.704 195.322 773.865 193.478 773.865 191.214V4.10812C773.865 1.84398 775.704 0 777.962 0H904.221ZM837.088 85.7336C837.088 87.9977 838.927 89.8417 841.185 89.8417H900.054C906.269 89.8417 911.088 88.1845 914.51 84.8933C917.931 81.6022 919.654 77.0039 919.654 71.0985C919.654 65.193 917.931 60.3847 914.51 57.1635C911.088 53.9424 906.269 52.3552 900.054 52.3552H841.185C838.927 52.3552 837.088 54.1991 837.088 56.4633V85.757V85.7336Z" fill="url(#paint4_linear_2044_62)"/>
<path d="M1275 4.10812V191.214C1275 193.478 1273.16 195.322 1270.9 195.322H1219.06C1216.81 195.322 1214.97 193.478 1214.97 191.214V81.3921C1214.97 76.8171 1208.61 75.6734 1207.03 79.9682L1165.73 192.615C1165.15 194.225 1163.62 195.299 1161.89 195.299H1105.12C1103.4 195.299 1101.88 194.225 1101.28 192.615L1059.98 80.3884C1058.4 76.0935 1052.05 77.2373 1052.05 81.8122V191.191C1052.05 193.455 1050.21 195.299 1047.95 195.299H996.109C993.851 195.299 992.012 193.455 992.012 191.191V4.10812C992.012 1.84398 993.851 0 996.109 0H1086.85C1088.59 0 1090.15 1.1204 1090.71 2.75431L1129.72 116.054C1131 119.742 1136.19 119.742 1137.47 116.054L1176.28 2.77765C1176.84 1.1204 1178.4 0 1180.14 0H1270.88C1273.14 0 1274.98 1.84398 1274.98 4.10812H1275Z" fill="url(#paint5_linear_2044_62)"/>
<defs>
<linearGradient id="paint0_linear_2044_62" x1="1133.51" y1="0" x2="1133.51" y2="195.322" gradientUnits="userSpaceOnUse">
<stop stop-color="#8559FE" stop-opacity="0.09"/>
<stop offset="1" stop-color="#8559FE" stop-opacity="0.02"/>
</linearGradient>
<linearGradient id="paint1_linear_2044_62" x1="1133.51" y1="0" x2="1133.51" y2="195.322" gradientUnits="userSpaceOnUse">
<stop stop-color="#8559FE" stop-opacity="0.09"/>
<stop offset="1" stop-color="#8559FE" stop-opacity="0.02"/>
</linearGradient>
<linearGradient id="paint2_linear_2044_62" x1="1133.51" y1="0" x2="1133.51" y2="195.322" gradientUnits="userSpaceOnUse">
<stop stop-color="#8559FE" stop-opacity="0.09"/>
<stop offset="1" stop-color="#8559FE" stop-opacity="0.02"/>
</linearGradient>
<linearGradient id="paint3_linear_2044_62" x1="1133.51" y1="0" x2="1133.51" y2="195.322" gradientUnits="userSpaceOnUse">
<stop stop-color="#8559FE" stop-opacity="0.09"/>
<stop offset="1" stop-color="#8559FE" stop-opacity="0.02"/>
</linearGradient>
<linearGradient id="paint4_linear_2044_62" x1="1133.51" y1="0" x2="1133.51" y2="195.322" gradientUnits="userSpaceOnUse">
<stop stop-color="#8559FE" stop-opacity="0.09"/>
<stop offset="1" stop-color="#8559FE" stop-opacity="0.02"/>
</linearGradient>
<linearGradient id="paint5_linear_2044_62" x1="1133.51" y1="0" x2="1133.51" y2="195.322" gradientUnits="userSpaceOnUse">
<stop stop-color="#8559FE" stop-opacity="0.09"/>
<stop offset="1" stop-color="#8559FE" stop-opacity="0.02"/>
</linearGradient>
</defs>
</svg>

<svg xmlns="http://www.w3.org/2000/svg" width="1275" height="201" fill="none" viewBox="0 0 1275 201"><path fill="url(#a)" d="M63.223 105.737c0 7.12 1.187 13.235 3.561 18.37 2.374 5.112 6.006 9.08 10.894 11.858 4.912 2.777 11.197 4.178 18.855 4.178h24.256c7.402-.117 13.431-1.447 18.133-4.038 4.912-2.685 8.496-6.629 10.778-11.858q3.421-7.808 3.421-18.486V4.108A4.11 4.11 0 0 1 157.218 0h55.029a4.11 4.11 0 0 1 4.097 4.108V109.38c0 18.229-4.004 34.125-12.011 47.663s-19.228 24.089-33.683 31.651c-14.177 7.4-30.727 11.181-49.698 11.321H96.533c-19.274 0-36.127-3.781-50.606-11.321-14.455-7.562-25.722-18.089-33.822-31.651C4.05 143.481 0 127.608 0 109.379V4.109A4.11 4.11 0 0 1 4.097 0h55.029a4.11 4.11 0 0 1 4.096 4.108z"/><path fill="url(#b)" d="M239.617 191.214V4.108A4.11 4.11 0 0 1 243.714 0h75.187a4.11 4.11 0 0 1 3.492 1.96l62.757 103.474c2.142 3.548 7.589 2.007 7.589-2.124V4.108A4.11 4.11 0 0 1 396.836 0h53.073a4.11 4.11 0 0 1 4.097 4.108v187.106a4.11 4.11 0 0 1-4.097 4.108h-72.743a4.08 4.08 0 0 1-3.492-1.984L308.473 85.71c-2.142-3.548-7.589-2.03-7.589 2.124v103.357a4.11 4.11 0 0 1-4.097 4.108h-53.073a4.11 4.11 0 0 1-4.097-4.108z"/><path fill="url(#c)" d="M481.078 0h55.029a4.11 4.11 0 0 1 4.097 4.108v187.106a4.11 4.11 0 0 1-4.097 4.108h-55.029a4.11 4.11 0 0 1-4.097-4.108V4.108A4.11 4.11 0 0 1 481.078 0"/><path fill="url(#d)" d="M560.933 191.214V4.108c0-2.264 1.838-4.108 4.096-4.108h135.082c16.992 0 30.307 4.201 39.944 12.628s14.456 20.097 14.456 35.036c0 8.52-1.793 16.502-5.401 23.948-3.584 7.47-9.404 13.725-17.388 18.743-.978.7-1.886 1.307-2.7 1.82a60.7 60.7 0 0 1 9.8 3.385c9.311 4.179 16.294 9.944 20.95 17.32s6.983 16.199 6.983 26.423-2.258 20.143-6.727 28.64c-4.493 8.519-11.313 15.195-20.461 20.05-9.149 4.855-20.578 7.283-34.312 7.283H565.029c-2.258 0-4.096-1.844-4.096-4.108zm61.756-122.146a4.11 4.11 0 0 0 4.097 4.108h48.58c4.237 0 7.798-1.377 10.662-4.178 2.863-2.778 4.283-6.326 4.283-10.667 0-3.992-1.304-7.283-3.911-9.897s-6.285-3.898-11.034-3.898h-48.58a4.11 4.11 0 0 0-4.097 4.108zm0 77.61c0 2.265 1.839 4.109 4.097 4.109h58.38c5.401 0 9.637-1.518 12.733-4.552s4.656-7.166 4.656-12.371q0-7.038-4.539-11.974c-3.027-3.291-7.473-4.949-13.362-4.949h-57.892a4.11 4.11 0 0 0-4.097 4.108v25.653z"/><path fill="url(#e)" d="M904.221 0c16.667 0 30.913 2.918 42.761 8.73s20.857 14.051 27.072 24.742c6.215 10.667 9.312 23.225 9.312 37.627 0 14.401-3.097 26.959-9.312 37.626s-15.223 18.93-27.072 24.742-26.094 8.73-42.761 8.73h-63.036a4.11 4.11 0 0 0-4.097 4.108v44.909a4.11 4.11 0 0 1-4.097 4.108h-55.029a4.11 4.11 0 0 1-4.097-4.108V4.108A4.11 4.11 0 0 1 777.962 0zm-67.133 85.734a4.11 4.11 0 0 0 4.097 4.108h58.869c6.215 0 11.034-1.657 14.456-4.949 3.421-3.29 5.144-7.89 5.144-13.794 0-5.906-1.723-10.714-5.144-13.936-3.422-3.22-8.241-4.808-14.456-4.808h-58.869a4.11 4.11 0 0 0-4.097 4.108v29.294z"/><path fill="url(#f)" d="M1275 4.108v187.106a4.11 4.11 0 0 1-4.1 4.108h-51.84c-2.25 0-4.09-1.844-4.09-4.108V81.392c0-4.575-6.36-5.719-7.94-1.424l-41.3 112.647a4.07 4.07 0 0 1-3.84 2.684h-56.77a4.1 4.1 0 0 1-3.84-2.684l-41.3-112.227c-1.58-4.294-7.93-3.15-7.93 1.424v109.379a4.11 4.11 0 0 1-4.1 4.108h-51.841a4.11 4.11 0 0 1-4.097-4.108V4.108A4.11 4.11 0 0 1 996.109 0h90.741c1.74 0 3.3 1.12 3.86 2.754l39.01 113.3c1.28 3.688 6.47 3.688 7.75 0l38.81-113.276A4.09 4.09 0 0 1 1180.14 0h90.74a4.11 4.11 0 0 1 4.1 4.108z"/><defs><linearGradient id="a" x1="1133.51" x2="1133.51" y1="0" y2="195.322" gradientUnits="userSpaceOnUse"><stop stop-color="#8559fe" stop-opacity=".09"/><stop offset="1" stop-color="#8559fe" stop-opacity=".02"/></linearGradient><linearGradient id="b" x1="1133.51" x2="1133.51" y1="0" y2="195.322" gradientUnits="userSpaceOnUse"><stop stop-color="#8559fe" stop-opacity=".09"/><stop offset="1" stop-color="#8559fe" stop-opacity=".02"/></linearGradient><linearGradient id="c" x1="1133.51" x2="1133.51" y1="0" y2="195.322" gradientUnits="userSpaceOnUse"><stop stop-color="#8559fe" stop-opacity=".09"/><stop offset="1" stop-color="#8559fe" stop-opacity=".02"/></linearGradient><linearGradient id="d" x1="1133.51" x2="1133.51" y1="0" y2="195.322" gradientUnits="userSpaceOnUse"><stop stop-color="#8559fe" stop-opacity=".09"/><stop offset="1" stop-color="#8559fe" stop-opacity=".02"/></linearGradient><linearGradient id="e" x1="1133.51" x2="1133.51" y1="0" y2="195.322" gradientUnits="userSpaceOnUse"><stop stop-color="#8559fe" stop-opacity=".09"/><stop offset="1" stop-color="#8559fe" stop-opacity=".02"/></linearGradient><linearGradient id="f" x1="1133.51" x2="1133.51" y1="0" y2="195.322" gradientUnits="userSpaceOnUse"><stop stop-color="#8559fe" stop-opacity=".09"/><stop offset="1" stop-color="#8559fe" stop-opacity=".02"/></linearGradient></defs></svg>
